img/les1.svg

<svg width="100" height="100" fill="none" xmlns="http://www.w3.org/2000/svg"><path d="M55.9227 59.843c-9.1464 1.0296-17.8584 3.8207-25.8941 8.2956l-3.9398 2.1939c-3.031 1.6879-6.5379 2.0982-9.8771 1.1552a.91181.91181 0 00-.0104-.0029c-3.3514-.9464-6.1287-3.1415-7.81992-6.1809-3.46702-6.2308-1.12669-14.1741 5.21712-17.7067l3.7516-2.0892c8.0359-4.4749 14.9881-10.4068 20.6639-17.631l1.9628-2.4982c-.1751 5.5464 1.6651 12.4642 5.5015 19.3118 3.3354 5.9536 7.6809 10.9042 12.2367 13.9402.4623.3081.922.5929 1.3786.8552l-3.1709.357z" fill="#F4003B"/><path d="M55.9227 59.843c-9.1464 1.0296-17.8584 3.8207-25.8941 8.2956l-3.9398 2.1939c-3.031 1.6879-6.5379 2.0982-9.8771 1.1552a.91181.91181 0 00-.0104-.0029c-3.3514-.9464-6.1287-3.1415-7.81992-6.1809-3.46702-6.2308-1.12669-14.1741 5.21712-17.7067l3.7516-2.0892c8.0359-4.4749 14.9881-10.4068 20.6639-17.631l1.9628-2.4982c-.1751 5.5464 1.6651 12.4642 5.5015 19.3118 3.3354 5.9536 7.6809 10.9042 12.2367 13.9402.4623.3081.922.5929 1.3786.8552l-3.1709.357z" fill="#F4003B"/><path fill="#000" d="M71.7051 3.94818l2.41482 1.315728L67.182445 17.9966l-2.41482-1.315728zM95.3027 47.5207l-.711752 2.656296-14.005925-3.752876.711753-2.656296zM90.6777 21.7816l1.375 2.38157-12.557368 7.25-1.375-2.38157z"/><path fill-rule="evenodd" clip-rule="evenodd" d="M42.9705 17.6985c.5521-.5776 1.1791-1.0682 1.882-1.4608 6.7339-3.7613 17.4721 3.0737 24.4465 15.5606 6.9744 12.4866 7.291 25.4535.429 28.9753 0 0-.9133.525-1.8758.7541-.9183.2187-12.0879 1.4122-12.0879 1.4122-5.3684.6062-10.5749 1.8697-15.5643 3.7686l2.709 4.8501 1.0273 1.7792-2.592 1.4965 5.3077 9.5028c1.9766 3.5388.7057 8.0258-2.8331 10.0024-1.7694.9883-3.776 1.1647-5.5872.6517-1.8112-.5131-3.4272-1.7155-4.4155-3.4849l-5.2993-9.4878-1.1921.6882-1.1016-1.9081.0158-.0091-3.4618-6.198c-2.2223.3612-4.5148.2356-6.7447-.396l-.0124-.0035c-4.0239-1.1398-7.35861-3.7832-9.38955-7.4441-4.16304-7.5043-1.37226-17.0599 6.22125-21.3012l3.6455-2.0362c7.4614-4.1675 13.917-9.6921 19.1871-16.4204 0 0 6.9134-8.9016 7.2861-9.2916zm-6.5548 72.356l-5.3202-9.5249.0028-.0015 3.6174-2.0205 4.0168-2.2436 5.0688 9.0751c.5645.7387.8999 1.662.8999 2.6635 0 2.4249-1.9658 4.3906-4.3907 4.3906-1.5216 0-2.8624-.774-3.6502-1.9498a4.38434 4.38434 0 01-.2446-.3889zm-8.5235-17.2506c-.6965.389-1.4141.7207-2.1469.9962l2.6852 4.8076 10.2278-5.7125 1.2096-.6756-2.4465-4.38c-.4248.1848-.8468.3763-1.2681.5708-.2062.1071-.7404.3759-1.3725.6941l-.0023.0011-.0003.0002-.0005.0003c-1.1723.59-2.6798 1.3487-3.0572 1.5595l-3.8283 2.1383zm2.3765-4.7375c7.8082-4.3614 16.2737-7.0817 25.1613-8.0852l3.0812-.3479c-.4438-.2557-.8904-.5332-1.3396-.8336-4.4269-2.9589-8.6495-7.784-11.8905-13.5865-3.7278-6.6738-5.5159-13.4161-5.3457-18.8219l-1.9073 2.4349c-5.5152 7.0409-12.2707 12.8224-20.0791 17.1837l-3.6454 2.0362c-6.16432 3.443-8.43843 11.1847-5.06953 17.2575 1.64333 2.9623 4.34203 5.1017 7.59863 6.0241l.0101.0028c3.2447.9191 6.6524.5192 9.5976-1.1258l3.8283-2.1383zm20.1769-33.2559l-.0006-.0678-5.3692 2.9989c.754 2.0059 1.6935 4.0297 2.8049 6.0195 1.1112 1.9895 2.3416 3.8503 3.6535 5.5441l5.3654-2.9968c-1.6392-1.0289-3.249-2.7714-4.5256-5.0569-1.1691-2.0931-1.8529-4.3195-1.9254-6.2693-.0022-.0581-.0026-.1149-.003-.1717zm10.0695 9.4785l.0041-.0019c.9222-.5153 1.0289-3.6-.9122-7.0754-.9303-1.6653-2.1635-3.0882-3.3836-3.9037-.4376-.2925-.8582-.4958-1.2247-.5996-.3879-.1099-.7149-.1084-.9377.016-.4332.242-.6774 1.0647-.6372 2.1472.0545 1.4665.6193 3.2629 1.5494 4.9281 1.9388 3.4708 4.6162 4.9978 5.5419 4.4893zm6.4926 14.3715c.6478-.1505.8441-.2494 1.2681-.4862 5.1004-2.8489 4.3786-14.2628-1.5763-24.9246-4.317-7.7286-10.4128-13.3233-15.3828-14.7311-1.8861-.5342-3.6095-.4656-5.0126.3181-.4266.2383-.8361.595-1.167.9141-.3309.319-.6915.8828-.6915.8828-1.0932 1.6884-1.6348 4.1838-1.5219 7.2191.0822 2.2068.4932 4.577 1.1964 7.0123l8.4883-4.7411.0005.001c1.479-.8261 3.3506-.5747 5.269.7076 1.6222 1.0844 3.1592 2.8341 4.3284 4.9272 2.6685 4.7777 2.5675 9.561-.2352 11.1266l-.0057.0027-8.4831 4.7383c1.7048 1.8762 3.5077 3.4697 5.3439 4.697 2.5211 1.6852 4.9261 2.5324 6.9349 2.49 0 0 .5989-.0033 1.2466-.1538z" fill="#000"/></svg>

<svg width="100" height="100" viewBox="0 0 100 100" fill="none" xmlns="http://www.w3.org/2000/svg">
<path d="M55.9227 59.843C46.7763 60.8726 38.0643 63.6637 30.0286 68.1386L26.0888 70.3325C23.0578 72.0204 19.5509 72.4307 16.2117 71.4877C16.2082 71.4867 16.2046 71.4857 16.2013 71.4848C12.8499 70.5384 10.0726 68.3433 8.38138 65.3039C4.91436 59.0731 7.25469 51.1298 13.5985 47.5972L17.3501 45.508C25.386 41.0331 32.3382 35.1012 38.014 27.877L39.9768 25.3788C39.8017 30.9252 41.6419 37.843 45.4783 44.6906C48.8137 50.6442 53.1592 55.5948 57.715 58.6308C58.1773 58.9389 58.637 59.2237 59.0936 59.486L55.9227 59.843Z" fill="#F4003B"/>
<path d="M55.9227 59.843C46.7763 60.8726 38.0643 63.6637 30.0286 68.1386L26.0888 70.3325C23.0578 72.0204 19.5509 72.4307 16.2117 71.4877C16.2082 71.4867 16.2046 71.4857 16.2013 71.4848C12.8499 70.5384 10.0726 68.3433 8.38138 65.3039C4.91436 59.0731 7.25469 51.1298 13.5985 47.5972L17.3501 45.508C25.386 41.0331 32.3382 35.1012 38.014 27.877L39.9768 25.3788C39.8017 30.9252 41.6419 37.843 45.4783 44.6906C48.8137 50.6442 53.1592 55.5948 57.715 58.6308C58.1773 58.9389 58.637 59.2237 59.0936 59.486L55.9227 59.843Z" fill="#F4003B"/>
<rect x="71.7051" y="3.94818" width="2.75" height="14.5" transform="rotate(28.584 71.7051 3.94818)" fill="black"/>
<rect x="95.3027" y="47.5207" width="2.75" height="14.5" transform="rotate(105 95.3027 47.5207)" fill="black"/>
<rect x="90.6777" y="21.7816" width="2.75" height="14.5" transform="rotate(60 90.6777 21.7816)" fill="black"/>
<path fill-rule="evenodd" clip-rule="evenodd" d="M42.9705 17.6985C43.5226 17.1209 44.1496 16.6303 44.8525 16.2377C51.5864 12.4764 62.3246 19.3114 69.299 31.7983C76.2734 44.2849 76.59 57.2518 69.728 60.7736C69.728 60.7736 68.8147 61.2986 67.8522 61.5277C66.9339 61.7464 55.7643 62.9399 55.7643 62.9399C50.3959 63.5461 45.1894 64.8096 40.2 66.7085L42.909 71.5586L43.9363 73.3378L41.3443 74.8343L46.652 84.3371C48.6286 87.8759 47.3577 92.3629 43.8189 94.3395C42.0495 95.3278 40.0429 95.5042 38.2317 94.9912C36.4205 94.4781 34.8045 93.2757 33.8162 91.5063L28.5169 82.0185L27.3248 82.7067L26.2232 80.7986L26.239 80.7895L22.7772 74.5915C20.5549 74.9527 18.2624 74.8271 16.0325 74.1955L16.0201 74.192C11.9962 73.0522 8.66149 70.4088 6.63055 66.7479C2.46751 59.2436 5.25829 49.688 12.8518 45.4467L16.4973 43.4105C23.9587 39.243 30.4143 33.7184 35.6844 26.9901C35.6844 26.9901 42.5978 18.0885 42.9705 17.6985ZM36.4157 90.0545L31.0955 80.5296L31.0983 80.5281L34.7157 78.5076L38.7325 76.264L43.8013 85.3391C44.3658 86.0778 44.7012 87.0011 44.7012 88.0026C44.7012 90.4275 42.7354 92.3932 40.3105 92.3932C38.7889 92.3932 37.4481 91.6192 36.6603 90.4434C36.573 90.3195 36.4912 90.1898 36.4157 90.0545ZM27.8922 72.8039C27.1957 73.1929 26.4781 73.5246 25.7453 73.8001L28.4305 78.6077L38.6583 72.8952L39.8679 72.2196L37.4214 67.8396C36.9966 68.0244 36.5746 68.2159 36.1533 68.4104C35.9471 68.5175 35.4129 68.7863 34.7808 69.1045L34.7785 69.1056L34.7782 69.1058L34.7777 69.1061C33.6054 69.6961 32.0979 70.4548 31.7205 70.6656L27.8922 72.8039ZM30.2687 68.0664C38.0769 63.705 46.5424 60.9847 55.43 59.9812L58.5112 59.6333C58.0674 59.3776 57.6208 59.1001 57.1716 58.7997C52.7447 55.8408 48.5221 51.0157 45.2811 45.2132C41.5533 38.5394 39.7652 31.7971 39.9354 26.3913L38.0281 28.8262C32.5129 35.8671 25.7574 41.6486 17.949 46.0099L14.3036 48.0461C8.13928 51.4891 5.86517 59.2308 9.23407 65.3036C10.8774 68.2659 13.5761 70.4053 16.8327 71.3277L16.8428 71.3305C20.0875 72.2496 23.4952 71.8497 26.4404 70.2047L30.2687 68.0664ZM50.4456 34.8105L50.445 34.7427L45.0758 37.7416C45.8298 39.7475 46.7693 41.7713 47.8807 43.7611C48.9919 45.7506 50.2223 47.6114 51.5342 49.3052L56.8996 46.3084C55.2604 45.2795 53.6506 43.537 52.374 41.2515C51.2049 39.1584 50.5211 36.932 50.4486 34.9822C50.4464 34.9241 50.446 34.8673 50.4456 34.8105ZM60.5151 44.289L60.5192 44.2871C61.4414 43.7718 61.5481 40.6871 59.607 37.2117C58.6767 35.5464 57.4435 34.1235 56.2234 33.308C55.7858 33.0155 55.3652 32.8122 54.9987 32.7084C54.6108 32.5985 54.2838 32.6 54.061 32.7244C53.6278 32.9664 53.3836 33.7891 53.4238 34.8716C53.4783 36.3381 54.0431 38.1345 54.9732 39.7997C56.912 43.2705 59.5894 44.7975 60.5151 44.289ZM67.0077 58.6605C67.6555 58.51 67.8518 58.4111 68.2758 58.1743C73.3762 55.3254 72.6544 43.9115 66.6995 33.2497C62.3825 25.5211 56.2867 19.9264 51.3167 18.5186C49.4306 17.9844 47.7072 18.053 46.3041 18.8367C45.8775 19.075 45.468 19.4317 45.1371 19.7508C44.8062 20.0698 44.4456 20.6336 44.4456 20.6336C43.3524 22.322 42.8108 24.8174 42.9237 27.8527C43.0059 30.0595 43.4169 32.4297 44.1201 34.865L52.6084 30.1239L52.6089 30.1249C54.0879 29.2988 55.9595 29.5502 57.8779 30.8325C59.5001 31.9169 61.0371 33.6666 62.2063 35.7597C64.8748 40.5374 64.7738 45.3207 61.9711 46.8863L61.9654 46.889L53.4823 51.6273C55.1871 53.5035 56.99 55.097 58.8262 56.3243C61.3473 58.0095 63.7523 58.8567 65.7611 58.8143C65.7611 58.8143 66.36 58.811 67.0077 58.6605Z" fill="black"/>
</svg>
